X: 24968
T: Maid Of Hollywell, The
R: reel
M: 4/4
K: Dmajor
A2 AB A2 dB|ADFA BG E2|A2 FA BdAd|BdAG FDDB|
ADFA BdcB|A2 FA BEEF|G3 A Bdeg|fdec dBAB|
d2 fd edBd|egfe dBAB|d2 fd egfe|dBAG FD D2|
d2 fd edBd|egfe dBAB|defg a2 ag|faeg fd d2|

